svgs/solid/butter.svg

<svg xmlns="http://www.w3.org/2000/svg" viewBox="0 0 640 512"><!--! Font Awesome Pro 6.6.0 by @fontawesome - https://fontawesome.com License - https://fontawesome.com/license (Commercial License) Copyright 2024 Fonticons, Inc. --><path d="M64 128c0-35.3 28.7-64 64-64l320 0 0 224L64 288l0-160zM32 320l576 0c17.7 0 32 14.3 32 32s-14.3 32-32 32l0 32c0 17.7-14.3 32-32 32L64 448c-17.7 0-32-14.3-32-32l0-32c-17.7 0-32-14.3-32-32s14.3-32 32-32zM512 64c35.3 0 64 28.7 64 64l0 160-96 0 0-224 32 0z"/></svg>

<svg xmlns="http://www.w3.org/2000/svg" viewBox="0 0 640 512"><!--! Font Awesome Pro 6.4.0 by @fontawesome - https://fontawesome.com License - https://fontawesome.com/license (Commercial License) Copyright 2023 Fonticons, Inc. --><path d="M64 128c0-35.3 28.7-64 64-64H448V288H64V128zM32 320H608c17.7 0 32 14.3 32 32s-14.3 32-32 32v32c0 17.7-14.3 32-32 32H64c-17.7 0-32-14.3-32-32V384c-17.7 0-32-14.3-32-32s14.3-32 32-32zM512 64c35.3 0 64 28.7 64 64V288H480V64h32z"/></svg>
